X:1
T: The Fair Haired lad
C:
R:Jig
Q:180
K:Am
M:6/8
L:1/16
G2|E4A2 A4E2|G4A2 B4d2|e2^f2e2 e4B2|c4A2 B4G2|E4A2 A4E2|G4A2 B4d2|e2^f2e2 d4B2|A6 A4G2|
E4A2 A4E2|G4A2 B4d2|e2^f2e2 e4B2|c4A2 B4G2|E4A2 A4E2|G4A2 B4d2|e2^f2e2 d4B2|A6 A4^f2|
g4^f2 e4d2|B4d2 e4d2|B4d2 e4^f2|g6 f4g2|a4^f2 e4d2|B4e2 e4e2|e2^f2e2 d4B2|A6 A4f2|
g4^f2 e4d2|B4d2 e4d2|B4d2 e4^f2|g6 f4g2|a2g2^f2 g2f2e2|^f4d2 B4d2|e2^f2e2 d4B2|A6 A4||
